azure-patterns/svg-nested-circles-dots.svg

<svg xmlns="http://www.w3.org/2000/svg" viewBox="0 0 49 49">
                                
                            
    <path d="M28.7166 24.8896C28.7166 27.0132 26.9975 28.7323 24.8739 28.7323C22.7504 28.7323 21.0312 27.0132 21.0312 24.8896C21.0312 22.766 22.7504 21.0469 24.8739 21.0469C26.9975 21.0469 28.7166 22.766 28.7166 24.8896Z" fill="#0078D4"></path>
    <path d="M31.2686 7.991C31.0579 6.81123 30.0214 5.91797 28.7911 5.91797C27.9652 5.91797 27.2321 6.31404 26.777 6.92078C26.1619 6.86179 25.5383 6.82808 24.9147 6.82808C14.9709 6.82808 6.90625 14.8843 6.90625 24.8365C6.90625 34.7803 14.9624 42.8449 24.9147 42.8449C34.8585 42.8449 42.9231 34.7803 42.9231 24.8365C42.9147 17.1343 38.0776 10.5612 31.2686 7.991ZM36.7461 36.6764C35.204 38.2185 33.4175 39.4236 31.4203 40.2663C29.3557 41.1427 27.1647 41.5809 24.9063 41.5809C22.6478 41.5809 20.4568 41.1343 18.3922 40.2663C16.395 39.4236 14.6085 38.2185 13.0664 36.6764C11.5327 35.1427 10.3192 33.3477 9.47647 31.3506C8.60007 29.2859 8.16187 27.0949 8.16187 24.8365C8.16187 22.5781 8.60007 20.3871 9.47647 18.3225C10.3192 16.3253 11.5242 14.5388 13.0664 12.9966C14.6001 11.4629 16.395 10.2494 18.3922 9.40673C20.4568 8.53033 22.6478 8.09213 24.9063 8.09213C25.3697 8.09213 25.8248 8.10898 26.2798 8.15112C26.2714 8.24381 26.263 8.34494 26.263 8.44606C26.263 9.83651 27.3922 10.9657 28.7827 10.9657C29.8697 10.9657 30.8051 10.2747 31.1506 9.30561C31.2349 9.33932 31.3276 9.37303 31.4119 9.41516C33.4091 10.2579 35.1956 11.4629 36.7377 13.005C38.2798 14.5388 39.4849 16.3337 40.3276 18.3309C41.204 20.3955 41.6422 22.5865 41.6422 24.8449C41.6422 27.1034 41.1956 29.2944 40.3276 31.359C39.4933 33.3477 38.2798 35.1343 36.7461 36.6764Z" fill="#0078D4"></path>
    <path d="M48.8237 24.8376C48.8237 20.4135 47.6186 16.2674 45.5287 12.7112C46.009 12.2477 46.3124 11.6073 46.3124 10.8825C46.3124 9.4921 45.1832 8.36289 43.7928 8.36289C43.3461 8.36289 42.9163 8.48086 42.554 8.69154C38.1804 3.91345 31.8939 0.921875 24.9079 0.921875C11.7029 0.921875 0.992188 11.6241 0.992188 24.8376C0.992188 29.2449 2.18039 33.3657 4.26185 36.9134C3.75623 37.3769 3.43601 38.0427 3.43601 38.7842C3.43601 40.1747 4.56522 41.3039 5.95567 41.3039C6.42758 41.3039 6.86578 41.1775 7.23657 40.95C11.6102 45.7449 17.9051 48.7533 24.9079 48.7533C28.995 48.7533 32.8461 47.7252 36.2169 45.9135C36.6214 46.1915 37.1102 46.3517 37.6411 46.3517C39.0315 46.3517 40.1607 45.2224 40.1607 43.832C40.1607 43.6466 40.1439 43.4696 40.1017 43.3011C45.4276 38.9191 48.8237 32.2786 48.8237 24.8376ZM39.5119 42.155C39.0484 41.641 38.3826 41.3208 37.6326 41.3208C36.2422 41.3208 35.113 42.45 35.113 43.8404C35.113 44.2365 35.2057 44.6073 35.3658 44.9359C34.8265 45.214 34.2871 45.4752 33.7225 45.7112C30.9332 46.891 27.9669 47.4893 24.9079 47.4893C21.8489 47.4893 18.8826 46.891 16.0933 45.7112C13.3967 44.5736 10.9697 42.9387 8.88825 40.8573C8.62702 40.596 8.37421 40.3264 8.12983 40.0567C8.34893 39.6859 8.47533 39.2477 8.47533 38.7842C8.47533 37.3938 7.34612 36.2646 5.95567 36.2646C5.76185 36.2646 5.56803 36.2899 5.38264 36.332C4.87702 35.4724 4.43039 34.5876 4.03432 33.6606C2.85455 30.8713 2.25623 27.905 2.25623 24.846C2.25623 21.787 2.85455 18.8208 4.03432 16.0314C5.17196 13.3348 6.80679 10.9078 8.88825 8.82637C10.9697 6.74491 13.3883 5.11008 16.0933 3.97244C18.8826 2.79266 21.8489 2.19435 24.9079 2.19435C27.9669 2.19435 30.9332 2.79266 33.7225 3.97244C36.4192 5.11008 38.8461 6.74491 40.9276 8.82637C41.172 9.07075 41.4079 9.32356 41.6439 9.57637C41.4079 9.96401 41.2731 10.4106 41.2731 10.8994C41.2731 12.2899 42.4023 13.4191 43.7928 13.4191C44.0119 13.4191 44.2225 13.3938 44.4248 13.3348C44.9304 14.1943 45.3854 15.096 45.7815 16.023C46.9613 18.8123 47.5596 21.7786 47.5596 24.8376C47.5596 27.8966 46.9613 30.8629 45.7815 33.6522C44.6439 36.3488 43.009 38.7758 40.9276 40.8573C40.4725 41.3123 40.0006 41.7421 39.5119 42.155Z" fill="#50E6FF"></path>
    <path d="M35.5268 30.3221C36.3779 28.6789 36.8583 26.8165 36.8583 24.8362C36.8583 18.2378 31.5072 12.8867 24.9088 12.8867C19.1448 12.8867 14.3414 16.9654 13.2122 22.3839C12.0156 22.5777 11.1055 23.6227 11.1055 24.8699C11.1055 26.1255 12.024 27.1704 13.2291 27.3642C14.392 32.7491 19.1785 36.7856 24.9088 36.7856C27.715 36.7856 30.2937 35.8165 32.333 34.1985C32.7375 34.4766 33.2347 34.6451 33.7656 34.6451C35.156 34.6451 36.2852 33.5159 36.2852 32.1255C36.2852 31.4176 35.9987 30.7772 35.5268 30.3221ZM17.3499 32.3951C15.9088 30.9541 14.9313 29.176 14.4931 27.2463C15.4538 26.8923 16.1448 25.9654 16.1448 24.8783C16.1448 23.7828 15.4454 22.8558 14.4763 22.5019C14.9145 20.5384 15.892 18.735 17.3499 17.2772C19.3723 15.2547 22.0521 14.1508 24.9088 14.1508C27.7656 14.1508 30.4454 15.2631 32.4678 17.2772C34.4903 19.2996 35.5942 21.9794 35.5942 24.8362C35.5942 26.5553 35.1897 28.2069 34.4313 29.6901C34.2206 29.6311 33.9931 29.5974 33.7572 29.5974C32.3667 29.5974 31.2375 30.7266 31.2375 32.1171C31.2375 32.5216 31.3302 32.9008 31.4987 33.2378C29.6279 34.7126 27.3274 35.5131 24.9004 35.5131C22.0521 35.5216 19.3723 34.4092 17.3499 32.3951Z" fill="#0078D4"></path>
</svg>

<svg xmlns="http://www.w3.org/2000/svg" viewBox="0 0 49 49"><path d="M28.717 24.89a3.841 3.841 0 0 1-3.843 3.842 3.841 3.841 0 0 1-3.843-3.842 3.841 3.841 0 0 1 3.843-3.843 3.841 3.841 0 0 1 3.843 3.843z" fill="#0078D4"/><path d="M31.269 7.991a2.523 2.523 0 0 0-2.478-2.073c-.826 0-1.559.396-2.014 1.003a19.541 19.541 0 0 0-1.862-.093c-9.944 0-18.009 8.056-18.009 18.009 0 9.943 8.056 18.008 18.009 18.008 9.944 0 18.008-8.065 18.008-18.008-.008-7.703-4.845-14.276-11.654-16.846zm5.477 28.685a16.637 16.637 0 0 1-5.326 3.59 16.571 16.571 0 0 1-6.514 1.315c-2.258 0-4.45-.447-6.514-1.315a16.637 16.637 0 0 1-5.326-3.59 16.684 16.684 0 0 1-3.59-5.325 16.572 16.572 0 0 1-1.314-6.514c0-2.259.438-4.45 1.314-6.514a16.638 16.638 0 0 1 3.59-5.326 16.681 16.681 0 0 1 5.326-3.59 16.571 16.571 0 0 1 6.514-1.315c.464 0 .919.017 1.374.06a2.521 2.521 0 0 0 2.503 2.815 2.515 2.515 0 0 0 2.368-1.661c.084.033.177.067.26.11a16.638 16.638 0 0 1 5.327 3.589 16.548 16.548 0 0 1 3.59 5.326 16.571 16.571 0 0 1 1.314 6.514c0 2.258-.446 4.45-1.314 6.514a16.67 16.67 0 0 1-3.582 5.317z" fill="#0078D4"/><path d="M48.824 24.838c0-4.425-1.205-8.57-3.295-12.127a2.521 2.521 0 0 0-1.736-4.348c-.447 0-.877.118-1.239.329A23.85 23.85 0 0 0 24.908.922C11.703.922.992 11.624.992 24.838c0 4.407 1.188 8.528 3.27 12.075a2.532 2.532 0 0 0-.826 1.871c0 1.39 1.13 2.52 2.52 2.52.472 0 .91-.127 1.28-.354 4.374 4.795 10.67 7.803 17.672 7.803 4.087 0 7.938-1.028 11.309-2.84a2.521 2.521 0 0 0 3.944-2.081c0-.185-.017-.362-.06-.53 5.327-4.383 8.723-11.023 8.723-18.464zm-9.312 17.317a2.514 2.514 0 0 0-1.88-.834c-1.39 0-2.519 1.129-2.519 2.52 0 .395.093.766.253 1.095a22.505 22.505 0 0 1-10.458 2.553c-3.06 0-6.025-.598-8.815-1.778a22.545 22.545 0 0 1-7.963-5.654 2.521 2.521 0 0 0-2.747-3.725 23.312 23.312 0 0 1-1.349-2.671 22.505 22.505 0 0 1-1.778-8.815c0-3.059.599-6.025 1.778-8.815a22.544 22.544 0 0 1 4.854-7.205 22.453 22.453 0 0 1 7.205-4.854 22.505 22.505 0 0 1 8.815-1.778c3.059 0 6.025.599 8.814 1.778a22.544 22.544 0 0 1 7.206 4.854c.244.245.48.498.716.75a2.52 2.52 0 0 0-.37 1.323c0 1.39 1.128 2.52 2.519 2.52.219 0 .43-.025.632-.084.505.86.96 1.761 1.357 2.688a22.505 22.505 0 0 1 1.778 8.815c0 3.059-.599 6.025-1.779 8.814a22.546 22.546 0 0 1-6.27 8.503z" fill="#50E6FF"/><path d="M35.527 30.322a11.884 11.884 0 0 0 1.331-5.486c0-6.598-5.35-11.95-11.95-11.95-5.763 0-10.567 4.08-11.696 9.498a2.52 2.52 0 0 0-2.107 2.486c0 1.255.919 2.3 2.124 2.494 1.163 5.385 5.95 9.422 11.68 9.422 2.806 0 5.385-.97 7.424-2.587a2.521 2.521 0 0 0 3.194-3.876zM17.35 32.395a10.582 10.582 0 0 1-2.857-5.149 2.527 2.527 0 0 0 1.652-2.368c0-1.095-.7-2.022-1.669-2.376a10.635 10.635 0 0 1 2.874-5.225 10.605 10.605 0 0 1 7.559-3.126 10.64 10.64 0 0 1 7.559 3.126 10.605 10.605 0 0 1 3.126 7.56c0 1.718-.404 3.37-1.163 4.853a2.521 2.521 0 0 0-2.933 3.548 10.602 10.602 0 0 1-6.598 2.275 10.591 10.591 0 0 1-7.55-3.118z" fill="#0078D4"/></svg>
